dist/img/anons/h3_icon.svg

<svg width="45" height="41" viewBox="0 0 45 41" fill="none" xmlns="http://www.w3.org/2000/svg">
<path fill-rule="evenodd" clip-rule="evenodd" d="M20.5301 0.28434C18.5697 0.998332 17.1835 2.57535 16.7634 4.56928C16.1925 7.28018 17.9798 10.9393 20.6146 12.4535C21.6514 13.0493 23.0685 13.0866 24.1834 12.5472C25.7211 11.8035 27.0793 10.0814 27.8096 7.9495C28.3843 6.27192 28.3441 4.45998 27.7047 3.20411C27.1435 2.10237 25.9876 0.998167 24.8703 0.49651C23.5996 -0.074058 21.7606 -0.163905 20.5301 0.28434ZM24.4768 1.7903C25.6001 2.34076 26.1609 2.95386 26.6133 4.12599C27.197 5.63854 26.6775 8.19002 25.4722 9.72962C23.2592 12.5562 20.5992 12.1177 18.7952 8.62887C18.0984 7.28117 18.0625 7.1422 18.0602 5.77636C18.0585 4.72392 18.1358 4.19819 18.35 3.80699C19.6203 1.48697 22.155 0.652628 24.4768 1.7903ZM21.6218 13.8767C20.7331 14.6844 20.6889 16.7558 21.5081 19.2056L21.8482 20.2224L21.3062 21.1838C20.731 22.2043 19.7043 23.5464 19.499 23.5464C19.4313 23.5464 19.2901 22.7036 19.1852 21.6735C18.986 19.7184 18.3135 17.5979 17.6177 16.7306C16.4415 15.264 14.391 16.2121 12.5169 19.0892C10.5079 22.1731 9.2319 26.4741 9.70765 28.5583C10.1086 30.3152 11.0954 30.8912 12.8481 30.3915C14.1484 30.0208 14.8491 29.6583 16.1937 28.6604C16.8069 28.2051 17.3425 27.8326 17.3839 27.8326C17.7399 27.8326 16.5242 31.5587 15.6919 33.0184C14.7462 34.6763 14.8137 34.6748 13.1218 33.0754C12.3102 32.3082 11.1196 31.3771 10.4759 31.0061C5.92299 28.3831 0.305258 29.3764 0.0110659 32.8566C-0.235047 35.7667 3.66107 38.5373 8.01175 38.5458C10.043 38.55 12.5827 37.8396 13.9494 36.8854L14.4581 36.5301L15.6643 37.7011C17.2275 39.2188 17.7806 39.6174 19.3082 40.3283C20.3772 40.8256 20.793 40.926 22.0414 40.9882C24.6456 41.1181 26.7215 40.1857 29.2069 37.7699L30.448 36.5636L31.2414 37.063C33.2451 38.3238 36.4462 38.8464 38.9546 38.3223C40.8389 37.9284 42.8226 36.9177 43.7489 35.8793C44.9798 34.4994 45.3069 33.1354 44.7103 31.8716C44.3095 31.0225 43.6428 30.4173 42.5915 29.9479C41.8701 29.6258 41.4767 29.5732 39.8176 29.5767C38.1633 29.5803 37.6974 29.6446 36.5891 30.0219C34.8962 30.5984 33.2644 31.6395 31.6362 33.1816C30.912 33.8677 30.2438 34.4007 30.1513 34.3659C29.5907 34.1555 27.9032 30.2809 27.4602 28.1871L27.3434 27.6348L28.5793 28.5402C31.3387 30.5618 33.3419 31.0871 34.4228 30.0722C35.1652 29.3752 35.3358 28.6965 35.2299 26.8603C34.9936 22.7605 31.782 16.9276 29.3229 16.1318C28.6079 15.9004 27.9762 16.08 27.4039 16.6773C26.5798 17.5375 25.6998 20.3693 25.6939 22.1794C25.6897 23.4719 25.5135 23.5151 24.614 22.4435C24.1737 21.9191 23.6646 21.2041 23.4829 20.8549L23.1526 20.2198L23.5839 18.4507C24.2157 15.8598 24.1123 14.5076 23.2304 13.8273C22.6572 13.3853 22.1453 13.401 21.6218 13.8767ZM22.6679 16.0964C22.6649 17.3671 22.4428 17.9381 22.2739 17.1097C22.1348 16.4281 22.1347 15.0596 22.2735 14.9234C22.5341 14.6679 22.6703 15.0728 22.6679 16.0964ZM16.7686 17.7515C16.956 18.0099 17.3017 18.8712 17.5365 19.6658C17.8956 20.8812 17.9634 21.4486 17.9634 23.2422V25.374L17.1648 26.2118C15.6703 27.7797 13.1001 29.3114 11.9573 29.3147C11.0648 29.3173 10.8394 28.7934 10.9454 26.9622C11.162 23.2259 14.3445 17.3023 16.1447 17.2846C16.3002 17.2832 16.581 17.4932 16.7686 17.7515ZM29.508 17.602C31.1435 18.5801 33.4962 23.2707 33.9476 26.454C34.2174 28.3559 33.8958 29.3164 32.9894 29.3164C31.9178 29.3164 29.5315 27.9571 27.9467 26.4441C26.8707 25.4168 26.7542 24.8802 27.0011 22.0904C27.1849 20.0147 27.6821 18.2636 28.2611 17.6528C28.6898 17.2007 28.8275 17.1951 29.508 17.602ZM23.0783 22.7752C23.4049 23.2579 24.0557 24.0449 24.5244 24.5243C25.692 25.7187 25.8023 25.9238 26.0363 27.3381C26.4721 29.9733 27.7011 33.1901 28.8944 34.8198C29.5476 35.7118 29.5118 35.798 27.8642 37.2939C24.0197 40.7844 19.7152 40.4479 16.1622 36.3791L15.454 35.568L15.9941 34.871C17.1147 33.4252 18.326 30.3025 18.952 27.2453C19.2479 25.8001 19.2518 25.7934 20.7533 24.007C21.317 23.3365 21.9119 22.5877 22.0755 22.3429C22.2391 22.0981 22.3979 21.8978 22.4287 21.8978C22.4593 21.8978 22.7516 22.2927 23.0783 22.7752ZM8.23753 31.2814C8.75951 31.476 9.6673 31.9397 10.2548 32.3118C11.5439 33.1283 13.5925 35.0377 13.5925 35.4226C13.5925 35.7998 11.901 36.6635 10.5509 36.9756C8.44783 37.4617 5.62409 37.1995 3.92618 36.3602C0.807234 34.8188 0.290968 32.0033 2.94845 31.0277C3.91592 30.6726 7.00125 30.8205 8.23753 31.2814ZM42.2531 31.2181C43.0386 31.5976 43.6842 32.4641 43.6842 33.139C43.6842 34.6963 41.7781 36.3086 39.1333 36.9884C37.7222 37.3511 34.9475 37.24 33.5798 36.7659C32.6315 36.4372 31.244 35.6679 31.244 35.4708C31.244 35.2037 32.1544 34.2437 33.2034 33.4045C34.5982 32.2884 36.3763 31.3103 37.5327 31.0229C38.806 30.7064 41.4177 30.8144 42.2531 31.2181Z" fill="#C9CDCA"/>
</svg>

<svg width="45" height="41" viewBox="0 0 45 41" fill="none" xmlns="http://www.w3.org/2000/svg"><path fill-rule="evenodd" clip-rule="evenodd" d="M20.53.284c-1.96.714-3.347 2.291-3.767 4.285-.57 2.711 1.217 6.37 3.852 7.885 1.036.595 2.454.633 3.568.093 1.538-.744 2.896-2.466 3.627-4.598.574-1.677.534-3.489-.105-4.745C27.144 2.102 25.988.998 24.87.497c-1.27-.571-3.11-.66-4.34-.213zm3.947 1.506c1.123.55 1.684 1.164 2.136 2.336.584 1.513.064 4.064-1.14 5.604-2.214 2.826-4.874 2.388-6.678-1.101-.697-1.348-.733-1.487-.735-2.853-.002-1.052.076-1.578.29-1.969 1.27-2.32 3.805-3.154 6.127-2.017zm-2.855 12.087c-.889.807-.933 2.879-.114 5.329l.34 1.016-.542.962c-.575 1.02-1.602 2.362-1.807 2.362-.068 0-.209-.842-.314-1.872-.199-1.956-.871-4.076-1.567-4.943-1.176-1.467-3.227-.519-5.101 2.358-2.01 3.084-3.285 7.385-2.81 9.47.402 1.756 1.388 2.332 3.141 1.832 1.3-.37 2.001-.733 3.346-1.73.613-.456 1.149-.828 1.19-.828.356 0-.86 3.726-1.692 5.185-.946 1.658-.878 1.657-2.57.057-.812-.767-2.002-1.698-2.646-2.069C5.923 28.383.306 29.376.01 32.856c-.246 2.91 3.65 5.681 8 5.69 2.032.004 4.572-.706 5.938-1.66l.51-.356 1.205 1.171c1.563 1.518 2.117 1.916 3.644 2.627 1.07.498 1.485.598 2.733.66 2.605.13 4.68-.802 7.166-3.218l1.241-1.206.793.499c2.004 1.26 5.205 1.783 7.714 1.26 1.884-.395 3.868-1.405 4.794-2.444 1.23-1.38 1.558-2.744.961-4.007-.4-.85-1.067-1.455-2.118-1.924-.722-.322-1.115-.375-2.774-.371-1.655.003-2.12.068-3.229.445-1.693.576-3.325 1.618-4.953 3.16-.724.686-1.392 1.219-1.485 1.184-.56-.21-2.248-4.085-2.69-6.179l-.118-.552 1.236.905c2.76 2.022 4.763 2.547 5.844 1.532.742-.697.913-1.375.807-3.212-.236-4.1-3.448-9.932-5.907-10.728-.715-.232-1.347-.052-1.92.545-.823.86-1.703 3.692-1.71 5.502-.003 1.293-.18 1.336-1.079.265-.44-.525-.95-1.24-1.131-1.59l-.33-.634.43-1.77c.633-2.59.53-3.942-.353-4.623-.573-.442-1.085-.426-1.608.05zm1.046 2.22c-.003 1.27-.225 1.841-.394 1.013-.14-.682-.14-2.05 0-2.187.26-.255.396.15.394 1.173zm-5.9 1.654c.188.259.534 1.12.768 1.915.36 1.215.427 1.783.427 3.576v2.132l-.798.838c-1.495 1.568-4.065 3.1-5.208 3.103-.892.002-1.118-.522-1.012-2.353.217-3.736 3.4-9.66 5.2-9.677.155-.002.436.208.624.466zm12.74-.149c1.636.978 3.988 5.669 4.44 8.852.27 1.902-.052 2.862-.959 2.862-1.071 0-3.457-1.359-5.042-2.872-1.076-1.027-1.193-1.564-.946-4.354.184-2.075.681-3.826 1.26-4.437.429-.452.567-.458 1.247-.051zm-6.43 5.173c.327.483.978 1.27 1.446 1.75 1.168 1.194 1.278 1.399 1.512 2.813.436 2.635 1.665 5.852 2.858 7.482.654.892.618.978-1.03 2.474-3.844 3.49-8.149 3.154-11.702-.915l-.708-.811.54-.697c1.12-1.446 2.332-4.569 2.958-7.626.296-1.445.3-1.452 1.801-3.238.564-.67 1.159-1.42 1.323-1.664.163-.245.322-.445.353-.445.03 0 .323.395.65.877zm-14.84 8.506c.522.195 1.43.659 2.017 1.03 1.289.817 3.337 2.727 3.337 3.112 0 .377-1.691 1.24-3.041 1.553-2.103.486-4.927.224-6.625-.616-3.119-1.541-3.635-4.357-.978-5.332.968-.355 4.053-.207 5.29.253zm34.015-.063c.786.38 1.431 1.246 1.431 1.921 0 1.557-1.906 3.17-4.55 3.85-1.412.362-4.187.251-5.554-.223-.948-.329-2.336-1.098-2.336-1.295 0-.267.91-1.227 1.96-2.066 1.394-1.117 3.172-2.095 4.329-2.382 1.273-.317 3.885-.209 4.72.195z" fill="#C9CDCA"/></svg>
